X:1
T:Title
%%score 1 2 3
L:1/8
M:4/2
K:C
V:1 treble nm="Part_1"
V:2 treble-8 nm="Part_2"
V:3 bass nm="Part_3"
V:1
 A,8 A,2 B,2 C2 D2 | E4 F4 G4 A4- | A4 G2 F2 G8 | A8 A,6 B,2 | C4 D4 E4 C4- | C4 B,2 A,2 B,8 | %6
 A,8 z4 c4- | c4 B2 A2 G4 F2 E2 | G4 A8 ^G4 | A8 z8 | c16 | B8 G4 B4- | B2 A2 A8 ^G4 | A8 z4 A4- | %14
 A4 G2 F2 E6 F2 | G8 z4 G4- | G4 A4 B8 | c12 B2 A2 | G4 A4 G4 F4- | F2 E2 E8 D4 | E6 F2 G2 A2 B4- | %21
 B2 A2 A8 ^G4 | A8 z8 | z8 c8 | B8 A8 | G8 F8 | E8 D8 | C8 B,8 | A,4 A8 ^G4 | A8 z8 | z8 E8 | %31
 B8 c8 | B8 A8 | G4 F2 E2 F8 | E16 | z8 A8 | G12 F2 E2 | G4 B6 A2 A4- | A4 ^G4 A8 | c4 B12 | %40
 A4 c8 B2 A2 | A4 ^G4 A4 E4 | c4 B4 G4 B4- | B2 A2 A8 ^G4 | A8 z4 c4- | c4 B4 A4 c4- | %46
 c4 B4 A4 c4- | c4 B2 A2 A4 ^G4 | A8 z8 | z16 | A8 G4 F4- | F2 G2 A4 B8 | c8 B4 A4- | %53
 A4 B4 c4 d2 c2 | B2 A2 A8 ^G4 | z4 A12 | E8 z4 G4- | G4 G8 F2 E2 | D8 z4 F4- | F4 F8 E2 D2 | %60
 C8 z4 E4- | E4 E8 D2 C2 | B,4 A4 B8 | c6 B2 c4 B4- | B2 A2 B4 c6 B2 | c4 B8 A4 | G4 c6 B2 c4 | %67
 B4 c8 B4 | c4 B8 A4 | G4 A4 G4 A4 | G4 A8 ^G4 | A16 |] %72
V:2
 z16 | z16 | z16 | A8 A2 B2 c2 d2 | e4 f4 g4 a4- | a4 g2 f2 g2 f2 e2 d2 | c12 B2 A2 | %7
 c4 d4 e4 c4- | c4 B2 A2 B8 | A6 B2 c2 d2 e4- | e4 d2 c2 e4 f4 | g12 f2 e2 | d4 c4 B8 | A8 z8 | %14
 c16 | B8 G4 B4- | B2 A2 A8 G4 | A16 | z4 A4 B4 c4- | c2 B2 B8 A4 | B4 c4 B4 e4- | e4 d2 c2 B8 | %22
 A8 z4 a4- | a2 g2 g6 f2 f4- | f2 e2 e6 d2 d4- | d2 c2 c6 B2 B4- | B2 A2 A8 G4 | A4 B2 c2 d8 | %28
 c4 A4 B8 | A8 z4 E4 | B8 c8 | B8 A8 | z8 z4 d4- | d2 c2 c8 B4 | c6 d2 e2 f2 g4- | g2 f2 e8 d4 | %36
 e12 d2 c2 | B4 G4 A8 | B8 A2 B2 c2 d2 | e2 f2 g6 f2 d4 | c4 e8 d2 c2 | B8 A6 B2 | c4 d12 | %43
 c4 A4 B8 | A8 f8 | e4 d4 f8 | e4 d4 f4 e4- | e4 d2 c2 B8 | A4 c8 B4 | A4 c8 B4 | A4 c6 B2 d2 c2 | %51
 B2 A2 A8 ^G4 | A8 G4 c4- | c4 d4 e4 d4- | d4 c4 B8 | A8 z8 | z4 e12 | B8 z4 d4- | d4 d8 c2 B2 | %59
 A8 z4 c4- | c4 c8 B2 A2 | G8 z4 B4- | B2 A2 A8 G4 | A6 B2 A4 d4- | d2 c2 d4 e6 d2 | c4 d8 c4 | %66
 B4 A4 e6 f2 | g4 e4 d8 | c4 d8 c4 | B4 A4 B4 c4 | B4 A4 B8 | A16 |] %72
V:3
 z16 | z16 | z16 | z16 | z16 | z16 | z16 | z16 | z16 | A,16 | A,8 A,8 | G,8 E,6 F,2 | G,4 A,4 E,8 | %13
 F,8 D,4 F,4- | F,4 E,2 D,2 C,4 B,,2 A,,2 | E,12 E,4- | E,4 D,2 C,2 B,,8 | A,,6 B,,2 C,4 D,4 | %18
 E,4 F,4 G,4 A,4- | A,2 E,2 G,4 F,8 | E,16- | E,16 | z8 C8 | B,8 A,8 | G,8 F,8 | E,8 D,8 | %26
 C,8 B,,8 | A,,4 A,,8 G,,4 | A,,4 C,4 D,4 E,4 | A,,16 | z16 | z8 A,,8 | E,8 F,8 | E,8 D,8 | %34
 C,8 z4 E,4- | E,2 D,2 E,4 F,8 | E,8 z4 E,4- | E,2 D,2 E,4 F,8 | E,8 A,8- | A,4 G,12 | A,12 E,4- | %41
 E,8 A,8- | A,4 G,12 | A,8 E,8 | A,,8 z8 | z16 | z16 | z8 E,8 | F,8 E,4 D,4 | F,8 E,4 D,4 | %50
 F,8 E,4 D,4- | D,4 C,4 B,,8 | A,,2 B,,2 C,2 D,2 E,4 F,4- | F,4 E,2 D,2 C,4 G,4- | G,4 A,4 E,8 | %55
 A,,8 z4 A,4- | A,8 E,8 | z4 G,8 G,4- | G,4 F,2 E,2 D,8 | z4 F,8 F,4- | F,4 E,2 D,2 C,8 | %61
 z4 E,8 E,4- | E,4 D,2 C,2 B,,8 | A,,6 E,2 A,4 G,4 | G,2 A,2 G,4 C,6 G,2 | A,4 G,8 A,4 | %66
 E,4 A,6 G,2 A,4 | G,4 C,4 G,8 | A,4 G,8 A,4 | E,4 F,4 E,4 A,,4 | E,4 F,4 E,8 | A,,16 |] %72

